X:1
T:title
M:4/4
Q:120
L:1/8
R:Reel
K:C
 ^b'4 ^F ^A3 |  _g2 ^D3ag _b' |  _b3 _a ^c'2 _b' _c' |  ^a' ^B4e'2 _G |  ^g'3 _A2 ^D _b _b |  ^f4 _Cg ^e2 | f'3 _g'3 ^bf |  _g3 ^f'4F | 